X: 23
T: the Mistake
R: reel
M: C
L: 1/8
Z: 2011 John Chambers <jc:trillian.mit.edu>
B: William Randall eds "Twenty Four Country Dances", London 1771, p.23
K: A
E | C/C/C EA cecA | B,/B,/B, DG BcdD | C/C/C EA D/D/D dc | {c}BA c/B/A/G/ A2A,2 :|
|:  c/c/c ec aedc | B/B/B dB FAGE | C/C/C EA B,/B,/B, dB | ceEG | A2A,2 :|
% - - - - - - - - - - - - - - - - - - - - - - - - -
%%begintext align
%% Foot it all 4 and change Places and Back
%% again Gallop down 2 Cu. lead up and cast
%% off set corners and outsides
%%endtext
% - - - - - - - - - - - - - - - - - - - - - - - - -

%%sep 1 1 500
%%sep 1 1 500
